newicons/bicycle.svg

<?xml version="1.0" encoding="UTF-8"?><svg id="a" xmlns="http://www.w3.org/2000/svg" viewBox="0 0 48 48"><defs><style>.ak{fill:none;stroke:#fff;stroke-linecap:round;stroke-linejoin:round;}</style></defs><g id="b"><g id="c"><g id="d"><path id="e" class="ak" d="M14.83194473,35.86403272c.25822163,3.19575882-.96998596,5.89691925-3.06177044,6.35864639-1.91240025.42213821-3.9752264-1.15367126-5.1850462-3.72063446"/><path id="f" class="ak" d="M12.1664479,29.65107725c.1134367.11209679.22476196.23022842.3336792.3541069"/><path id="g" class="ak" d="M5.54541853,33.96708677c-.03006315-2.86919785,1.16487551-5.20252609,3.09527922-5.62863159.34505463-.07616043.69500732-.08728027,1.04396152-.03927994"/></g><path id="h" class="ak" d="M5.50009372,36.47769544l3.70646-1.18949127"/><g id="i"><path id="j" class="ak" d="M16.6956351,33.70442579c-.87905025.23603058-1.85830593-.55650711-2.18723106-1.77018929-.32892418-1.21368217.11704063-2.38890648.99609089-2.62493896s1.85830593.55650711,2.18723011,1.77018929"/><path id="k" class="ak" d="M9.28512886,34.43212126l5.74325371-4.89961815"/><path id="l" class="ak" d="M9.57081916,35.67891691l6.88965321-1.93512344"/><path id="m" class="ak" d="M15.80156734,31.83271215c2.87101364.86667442,4.21130943,1.29614449,5.45012093,2.11483192-.91197968.56611252-2.82181168.92463303-4.11956024.71607208"/></g></g><g id="n"><g id="o"><path id="p" class="ak" d="M26.72427204,20.10749052c.48092461-1.04537582,1.20573616-1.87728119,2.16786766-2.39833832,3.45308495-1.8700695,8.65543556.97208977,11.61977196,6.34814072,2.9643364,5.37604904,2.56812668,11.25019073-.88496017,13.12025833-3.16348648,1.71323395-7.79513168-.52850723-10.82907295-5.0502739"/><path id="q" class="ak" d="M26.77180889,28.02666662c-.3129673-.93392372-.52749443-1.85956573-.64513779-2.7538147"/></g><g id="r"><path id="s" class="ak" d="M31.6921561,28.06933592l-3.92911148,1.76215172"/><path id="t" class="ak" d="M37.54697635,25.44353102l-4.17567062,1.87273026"/><path id="u" class="ak" d="M25.45542362,18.18853567c-.75115967,1.08225441-.64813042,2.0425415.03778076,3.1469574l5.07344246,8.16897583"/><path id="v" class="ak" d="M28.98789623,19.85395048l4.88822746,7.93540764"/><path id="w" class="ak" d="M33.47840717,27.56574056c.17925644.58378792-.07347488,1.17926788-.56449127,1.33003426v.00000191c-.49101257.15076828-1.03437614-.20026398-1.21363258-.78405571-.17925453-.58378983.07347298-1.17926788.56448936-1.33003616s1.03437805.20026398,1.21363449.7840538v.00000191Z"/></g></g><g id="x"><path id="y" class="ak" d="M23.90621021,15.21696279l-12.26593113,11.8794384-2.53878403,6.66286469.42821217,2.22234344"/><path id="z" class="ak" d="M12.15354183,23.50192259l2.84511471,4.33555984"/><path id="aa" class="ak" d="M9.15550163,23.32202719c2.47028255-.50790596,2.78512573-1.86404228,4.67019272-3.10266685"/><path id="ab" class="ak" d="M24.35978344,16.22679708l-6.11310005,12.7260437"/><path id="ac" class="ak" d="M22.80509403,13.54874418l4.09498215,6.20677948"/><path id="ad" class="ak" d="M13.82780292,26.05706404l-.76139259,2.20512772"/></g><g id="ae"><path id="af" class="ak" d="M6.83468845,9.54784582l5.17590237-1.3806839"/><path id="ag" class="ak" d="M25.99289348,5.70918987l2.46651459.02208805"/><path id="ah" class="ak" d="M17.35069683,8.43952368l6.68958282-1.24750757"/><path id="ai" class="ak" d="M23.19862583,10.94254301l.75265884,1.10209274"/><path id="aj" class="ak" d="M13.3374541,7.78732584c1.58053589-.40105343,2.86216927.70590687,4.33568954,1.72234058,1.74348259,1.20265484,2.65077019,3.2514143,5.39123344,2.85264778,0,0,1.19695091-.2304163,1.66426468-.58786201.40727997-.31152534.56396675-1.20598507.45224571-1.68387127l-.79510689-3.40105295c-.06105614-.26116943-.13252449-.67417479.3526516-.86793184"/></g></g></svg>

<?xml version="1.0" encoding="UTF-8" standalone="no"?>
<svg
   viewBox="0 0 48 48"
   version="1.1"
   id="svg1"
   sodipodi:docname="bicycle.svg"
   inkscape:version="1.2.2 (b0a8486541, 2022-12-01)"
   xml:space="preserve"
   xmlns:inkscape="http://www.inkscape.org/namespaces/inkscape"
   xmlns:sodipodi="http://sodipodi.sourceforge.net/DTD/sodipodi-0.dtd"
   xmlns="http://www.w3.org/2000/svg"
   xmlns:svg="http://www.w3.org/2000/svg"><sodipodi:namedview
     id="namedview1"
     pagecolor="#505050"
     bordercolor="#eeeeee"
     borderopacity="1"
     inkscape:showpageshadow="0"
     inkscape:pageopacity="0"
     inkscape:pagecheckerboard="0"
     inkscape:deskcolor="#505050"
     inkscape:zoom="17.8125"
     inkscape:cx="9.6561404"
     inkscape:cy="17.852632"
     inkscape:window-width="1918"
     inkscape:window-height="1053"
     inkscape:window-x="0"
     inkscape:window-y="0"
     inkscape:window-maximized="1"
     inkscape:current-layer="svg1"
     showgrid="false" /><defs
     id="defs1"><style
       id="style1">.a { fill:none;stroke:#fff;stroke-linecap:round;stroke-linejoin:round; }
</style></defs><g
     id="g2939"><g
       id="g2888"><g
         id="g2858"><path
           style="fill:none;stroke:#ffffff;stroke-width:1;stroke-linecap:round;stroke-linejoin:round;stroke-opacity:1;stop-color:#000000"
           d="m 14.831851,35.864331 c 0.258222,3.195759 -0.969986,5.89692 -3.06177,6.358647 C 9.85768,42.645113 7.7948544,41.069304 6.5850346,38.502344"
           id="path1588" /><path
           style="fill:none;stroke:#ffffff;stroke-width:1;stroke-linecap:round;stroke-linejoin:round;stroke-opacity:1;stop-color:#000000"
           d="m 12.166354,29.651375 c 0.113437,0.112096 0.224762,0.230229 0.333679,0.354106"
           id="path1586" /><path
           style="fill:none;stroke:#ffffff;stroke-width:1;stroke-linecap:round;stroke-linejoin:round;stroke-opacity:1;stop-color:#000000"
           d="m 5.5453248,33.967386 c -0.030063,-2.869198 1.1648754,-5.202525 3.095279,-5.628632 0.3450547,-0.07616 0.6950071,-0.08728 1.0439613,-0.03928"
           id="path1584" /></g><path
         style="fill:none;stroke:#ffffff;stroke-width:1;stroke-linecap:round;stroke-linejoin:round;stroke-opacity:1;stop-color:#000000"
         d="M 5.5000001,36.477994 9.2064597,35.288502"
         id="path1574" /><g
         id="g2849"><path
           style="fill:none;stroke:#ffffff;stroke-width:1;stroke-linecap:round;stroke-linejoin:round;stroke-opacity:1;stop-color:#000000"
           d="m 16.695542,33.704723 c -0.87905,0.236032 -1.858306,-0.556509 -2.187231,-1.770189 -0.328924,-1.213682 0.117041,-2.388906 0.996091,-2.624939 0.87905,-0.236033 1.858306,0.556508 2.187231,1.770189"
           id="path1570" /><path
           style="fill:none;stroke:#ffffff;stroke-width:1;stroke-linecap:round;stroke-linejoin:round;stroke-opacity:1;stop-color:#000000"
           d="M 9.2850353,34.432419 15.028289,29.532801"
           id="path1564" /><path
           style="fill:none;stroke:#ffffff;stroke-width:1;stroke-linecap:round;stroke-linejoin:round;stroke-opacity:1;stop-color:#000000"
           d="M 9.5707255,35.679215 16.460378,33.74409"
           id="path1562" /><path
           style="fill:none;stroke:#ffffff;stroke-width:1;stroke-linecap:round;stroke-linejoin:round;stroke-opacity:1;stop-color:#000000"
           d="m 15.801474,31.833009 c 2.871013,0.866673 4.21131,1.296145 5.450122,2.114833 -0.91198,0.566111 -2.821811,0.924634 -4.119561,0.716072"
           id="path1560" /></g></g><g
       id="g2876"><g
         id="g2853"><path
           style="fill:none;stroke:#ffffff;stroke-width:1;stroke-linecap:round;stroke-linejoin:round;stroke-opacity:1;stop-color:#000000"
           d="m 26.724179,20.107788 c 0.480924,-1.045375 1.205737,-1.877282 2.167867,-2.398339 3.453086,-1.87007 8.655436,0.972089 11.619774,6.34814 2.964337,5.37605 2.568126,11.25019 -0.88496,13.120259 -3.163487,1.713234 -7.795132,-0.528507 -10.829073,-5.050275"
           id="path1592" /><path
           style="fill:none;stroke:#ffffff;stroke-width:1;stroke-linecap:round;stroke-linejoin:round;stroke-opacity:1;stop-color:#000000"
           d="M 26.771715,28.026964 C 26.458747,27.09304 26.24422,26.167398 26.126578,25.273149"
           id="path1590"
           sodipodi:nodetypes="cc" /></g><g
         id="g2865"><path
           style="fill:none;stroke:#ffffff;stroke-width:1;stroke-linecap:round;stroke-linejoin:round;stroke-opacity:1;stop-color:#000000"
           d="M 31.692062,28.069634 27.76295,29.831786"
           id="path1578" /><path
           style="fill:none;stroke:#ffffff;stroke-width:1;stroke-linecap:round;stroke-linejoin:round;stroke-opacity:1;stop-color:#000000"
           d="m 37.546883,25.443828 -4.175669,1.872731"
           id="path1576" /><path
           style="fill:none;stroke:#ffffff;stroke-width:1;stroke-linecap:round;stroke-linejoin:round;stroke-opacity:1;stop-color:#000000"
           d="m 25.45533,18.188834 c -0.75116,1.082255 -0.64813,2.042542 0.03778,3.146958 l 5.073442,8.168976"
           id="path1556" /><path
           style="fill:none;stroke:#ffffff;stroke-width:1;stroke-linecap:round;stroke-linejoin:round;stroke-opacity:1;stop-color:#000000"
           d="m 28.987802,19.854249 4.888227,7.935408"
           id="path1554"
           sodipodi:nodetypes="cc" /><path
           style="fill:none;stroke:#ffffff;stroke-width:1;stroke-linecap:round;stroke-linejoin:round;stroke-opacity:1;stop-color:#000000"
           d="m 33.478314,27.566039 a 1.1057544,0.93003004 72.930492 0 1 -0.564491,1.330036 1.1057544,0.93003004 72.930492 0 1 -1.213633,-0.784055 1.1057544,0.93003004 72.930492 0 1 0.56449,-1.330037 1.1057544,0.93003004 72.930492 0 1 1.213634,0.784056 z"
           id="path1550" /></g></g><g
       id="g2896"><path
         style="fill:none;stroke:#ffffff;stroke-width:1;stroke-linecap:round;stroke-linejoin:round;stroke-opacity:1;stop-color:#000000"
         d="M 23.906116,15.21726 11.640185,27.096699 9.1014009,33.759564 9.5296132,35.981907"
         id="path1572" /><path
         style="fill:none;stroke:#ffffff;stroke-width:1;stroke-linecap:round;stroke-linejoin:round;stroke-opacity:1;stop-color:#000000"
         d="m 12.153448,23.502221 2.845115,4.335559"
         id="path1568" /><path
         style="fill:none;stroke:#ffffff;stroke-width:1;stroke-linecap:round;stroke-linejoin:round;stroke-opacity:1;stop-color:#000000"
         d="M 9.1554083,23.322325 C 11.62569,22.814418 11.940534,21.458283 13.825601,20.219657"
         id="path1566" /><path
         style="fill:none;stroke:#ffffff;stroke-width:1;stroke-linecap:round;stroke-linejoin:round;stroke-opacity:1;stop-color:#000000"
         d="m 24.359689,16.227094 -6.1131,12.726044"
         id="path1558" /><path
         style="fill:none;stroke:#ffffff;stroke-width:1;stroke-linecap:round;stroke-linejoin:round;stroke-opacity:1;stop-color:#000000"
         d="m 22.805,13.549042 4.094983,6.20678"
         id="path1552" /><path
         style="fill:none;stroke:#ffffff;stroke-width:1;stroke-linecap:round;stroke-linejoin:round;stroke-opacity:1;stop-color:#000000"
         d="M 13.827709,26.057362 13.066317,28.26249"
         id="path1548" /></g><g
       id="g2903"><path
         style="fill:none;stroke:#ffffff;stroke-width:1;stroke-linecap:round;stroke-linejoin:round;stroke-opacity:1;stop-color:#000000"
         d="M 6.8345949,9.548143 12.010497,8.1674594"
         id="path1582" /><path
         style="fill:none;stroke:#ffffff;stroke-width:1;stroke-linecap:round;stroke-linejoin:round;stroke-opacity:1;stop-color:#000000"
         d="m 25.992799,5.7094872 2.466514,0.022088"
         id="path1580" /><path
         style="fill:none;stroke:#ffffff;stroke-width:1;stroke-linecap:round;stroke-linejoin:round;stroke-opacity:1;stop-color:#000000"
         d="M 17.350603,8.4398212 24.040186,7.1923135"
         id="path1546" /><path
         style="fill:none;stroke:#ffffff;stroke-width:1;stroke-linecap:round;stroke-linejoin:round;stroke-opacity:1;stop-color:#000000"
         d="m 23.198533,10.942841 0.752658,1.102093"
         id="path1544" /><path
         style="fill:none;stroke:#ffffff;stroke-width:1;stroke-linecap:round;stroke-linejoin:round;stroke-opacity:1;stop-color:#000000"
         d="m 13.33736,7.7876234 c 1.580536,-0.4010535 2.862169,0.7059067 4.33569,1.722341 1.743483,1.2026546 2.65077,3.2514146 5.391233,2.8526476 0,0 1.19695,-0.230416 1.664264,-0.587862 0.40728,-0.311525 0.563967,-1.205985 0.452246,-1.683871 L 24.385687,6.6898254 C 24.324631,6.4286563 24.253162,6.0156509 24.738338,5.8218937"
         id="path1533" /></g></g></svg>
